svg/icon/strk.svg

<?xml version="1.0" encoding="UTF-8"?>
<svg xmlns="http://www.w3.org/2000/svg" xmlns:xlink="http://www.w3.org/1999/xlink" width="32px" height="32px" viewBox="0 0 32 32" version="1.1">
<g id="surface1">
<path style=" stroke:none;fill-rule:nonzero;fill:rgb(0%,0%,0%);fill-opacity:1;" d="M 13.707031 0.269531 C 8.304688 1.117188 3.871094 4.414062 1.578125 9.308594 C -1.324219 15.507812 0.03125 22.757812 4.972656 27.507812 C 8.113281 30.519531 11.632812 31.921875 16.09375 31.921875 C 18.566406 31.921875 20.222656 31.601562 22.3125 30.691406 C 26.691406 28.796875 30.199219 24.734375 31.410156 20.160156 C 31.839844 18.519531 32 15.15625 31.714844 13.417969 C 30.660156 6.902344 25.515625 1.65625 18.964844 0.414062 C 17.769531 0.175781 14.757812 0.09375 13.707031 0.269531 Z M 24.175781 7.886719 C 24.445312 8.621094 24.527344 8.703125 25.257812 8.941406 C 25.707031 9.082031 26.054688 9.289062 26.054688 9.402344 C 26.054688 9.515625 25.769531 9.707031 25.433594 9.832031 C 24.589844 10.121094 24.269531 10.421875 24.160156 11.074219 C 24.09375 11.363281 23.953125 11.679688 23.824219 11.792969 C 23.585938 12 23.410156 11.730469 23.171875 10.742188 C 23.058594 10.277344 22.933594 10.199219 22.039062 9.878906 C 21.226562 9.59375 21.148438 9.386719 21.769531 9.117188 C 22.851562 8.636719 23.011719 8.511719 23.21875 7.886719 C 23.585938 6.804688 23.585938 6.789062 23.746094 6.949219 C 23.824219 7.027344 24.015625 7.441406 24.175781 7.886719 Z M 11.347656 9.164062 C 13.242188 9.5625 14.820312 10.4375 18.390625 13.132812 C 20.222656 14.519531 22.085938 15.839844 22.535156 16.09375 C 24.304688 17.117188 25.671875 17.050781 28.574219 15.824219 C 29.515625 15.425781 30.328125 15.140625 30.375 15.171875 C 30.535156 15.347656 30.039062 17.035156 29.53125 18.070312 C 28.605469 19.90625 26.917969 21.464844 25.164062 22.070312 C 22.773438 22.917969 20.253906 22.628906 17.308594 21.179688 C 15.585938 20.320312 14.46875 19.507812 11.886719 17.148438 C 9.179688 14.691406 8.398438 14.261719 6.691406 14.277344 C 5.433594 14.277344 3.953125 14.675781 2.503906 15.410156 C 2.070312 15.617188 1.6875 15.761719 1.640625 15.730469 C 1.464844 15.539062 2.167969 13.59375 2.726562 12.734375 C 4.652344 9.753906 7.871094 8.414062 11.347656 9.164062 Z M 7.777344 23.457031 C 8.078125 23.761719 8 24.460938 7.648438 24.78125 C 6.917969 25.433594 5.800781 24.320312 6.453125 23.585938 C 6.773438 23.234375 7.472656 23.15625 7.777344 23.457031 Z M 7.777344 23.457031 "/>
</g>
</svg>

<svg xmlns="http://www.w3.org/2000/svg" width="32" height="32" viewBox="0 0 32 32"><path d="M13.707.27c-5.402.847-9.836 4.144-12.129 9.039-2.902 6.199-1.547 13.449 3.395 18.199 3.14 3.012 6.66 4.414 11.12 4.414 2.473 0 4.13-.32 6.22-1.23 4.378-1.895 7.886-5.958 9.097-10.532.43-1.64.59-5.004.305-6.742-1.055-6.516-6.2-11.762-12.75-13.004C17.77.176 14.758.094 13.707.27zm10.469 7.617c.27.734.351.816 1.082 1.054.449.141.797.348.797.461 0 .114-.285.305-.621.43-.844.29-1.164.59-1.274 1.242-.066.29-.207.606-.336.719-.238.207-.414-.063-.652-1.05-.113-.466-.238-.544-1.133-.864-.812-.285-.89-.492-.27-.762 1.083-.48 1.243-.605 1.45-1.23.367-1.082.367-1.098.527-.938.078.078.27.492.43.938zM11.348 9.164c1.894.399 3.472 1.274 7.043 3.969 1.832 1.387 3.695 2.707 4.144 2.96 1.77 1.024 3.137.958 6.04-.269.94-.398 1.753-.683 1.8-.652.16.176-.336 1.863-.844 2.898-.926 1.836-2.613 3.395-4.367 4-2.39.848-4.91.559-7.855-.89-1.723-.86-2.84-1.672-5.422-4.032-2.707-2.457-3.489-2.886-5.196-2.87-1.257 0-2.738.398-4.187 1.132-.434.207-.817.352-.863.32-.176-.19.527-2.136 1.086-2.996 1.925-2.98 5.144-4.32 8.62-3.57zm-3.57 14.293c.3.305.222 1.004-.13 1.324-.73.653-1.847-.46-1.195-1.195.32-.352 1.02-.43 1.324-.129zm0 0"/></svg>
